X:203
T:Rambler, The
R:jig
D:Frankie Gavin: Frankie Goes to Town
Z:id:hn-jig-203
M:6/8
K:A
ECE E2A|FEC E2e|fec ABc|dcd BAF|
ECE E2A|FEC E2e|fec ABc|1 ~B3 A2F:|2 ~B3 A3||
|:ecA Ace|~a3 faf|ece fec|~B3 Bcd|
ecA Ace|~a3 faf|ece fec|1 ~B3 A3:|2 ~B3 A2F||
P:variations
|:ECE [E2A,2]A|FEC E2e|fec ABc|BAF FAF|
ECE [E2A,2]A|FEC E2e|fec ABc|1 BAG A2F:|2 BAG A3||
|:~e3 Ace|aff faf|ece fec|~B3 Bcd|
~e3 Ace|aff faf|ecA ~B3|1 cAA A3:|2 cAA A2F||

